X:1
T:[ID 8-103]
T:[ID 8-103]
T:Bezeichnung standardisiert: Serze; Serze
T:Urheber unbekannt Datum in der hier transkribierten schriftlichen Quelle: 1792
C:Urheber unbekannt
C:Datum in der hier transkribierten schriftlichen Quelle: 1792
L:1/8
M:2/4
K:D
V:1 treble 
V:1
 E | AAAA | A/c/B/d/ c2 | cccc | c/e/d/f/ e2 | aeea | c'b a2 | ee f/e/d/c/ | BB/B/ B :: ee/e/ eB | %10
 gebg | agfe | ^d/e/d/e/ BE | AAAA | A/c/B/d/ ce | aaec | AA/A/ A2 :: E | A3 c | e3 E | FEFG | %21
 A3 E | A3 c | e3 E | FEFG | A2 z :: E | E/F/G/F/ EB | BBEE | A/B/c/B/ AA | ccAE | A3 c | e3 E | %33
 FEFG | G2 A2 :: E | (A/c/B/d/) (c/e/d/f/) | ea a2 | g/a/g/a/ b/a/g/a/ | b/a/g/a/ eE | %40
 (A/c/B/d/) (c/e/d/f/) | ea a2 | g/a/g/a/ b/a/g/f/ | ee e :: B | e/g/b/g/ e/g/b/g/ | %46
 e/g/b/g/ e/g/b/g/ | e/a/c'/a/ e/a/c'/a/ | e/a/c'/a/ !fermata!e>E | A/c/e/a/ a/e/c/A/ | %50
 A/c/e/a/ a/e/c/A/ | c/A/B/c/ d/e/f/g/ | aa a :| %53

